Sources/FrostedUI/Resources/Icons.xcassets/instagram32.imageset/instagram-32.svg

<svg width="32" height="32" viewBox="0 0 32 32" fill="none" xmlns="http://www.w3.org/2000/svg" data-fui-icon="true">
  <path
    d="M16 4.25C19.5724 4.25 20.0204 4.26428 21.4404 4.3291C22.3737 4.34145 23.2986 4.51248 24.1738 4.83691L24.1729 4.83789C24.8537 5.08929 25.4707 5.4876 25.9785 6.00586L26.1699 6.20312C26.603 6.67357 26.9409 7.22468 27.1631 7.82617L27.2773 8.1582C27.526 8.929 27.6586 9.73295 27.6709 10.5439L27.7109 11.4961C27.7423 12.3918 27.75 13.3105 27.75 16C27.75 19.5855 27.7364 20.0236 27.6709 21.4561C27.6568 22.3838 27.4855 23.3027 27.1631 24.1729L27.1592 24.1826C26.8982 24.859 26.4991 25.4737 25.9863 25.9863C25.4737 26.4991 24.859 26.8982 24.1826 27.1592L24.1738 27.1631L23.9131 26.46L23.9072 26.4473L24.1729 27.1631C23.2978 27.4874 22.3735 27.6585 21.4404 27.6709C20.0204 27.7358 19.5724 27.75 16 27.75C12.4267 27.75 11.9793 27.7358 10.5586 27.6709C9.62521 27.6585 8.70055 27.4875 7.8252 27.1631V27.1621C7.13809 26.908 6.51609 26.5042 6.00586 25.9785V25.9775C5.48784 25.4698 5.08921 24.8535 4.83789 24.1729C4.51531 23.3026 4.34315 22.3839 4.3291 21.4561C4.26366 20.0236 4.25 19.5855 4.25 16C4.25 12.4145 4.26366 11.9762 4.3291 10.5439C4.34315 9.61592 4.5143 8.69656 4.83691 7.82617C5.09086 7.13862 5.49567 6.51648 6.02148 6.00586C6.52911 5.4878 7.14564 5.0893 7.82617 4.83789C8.70114 4.51358 9.62559 4.34155 10.5586 4.3291C11.9793 4.26424 12.4267 4.25 16 4.25ZM16 5.75C12.4206 5.75 12.0098 5.7633 10.6123 5.82715C10.6039 5.82753 10.5953 5.82802 10.5869 5.82812C9.82229 5.83738 9.06468 5.9774 8.34766 6.24316L8.34668 6.24414C7.86907 6.42043 7.43672 6.70118 7.08203 7.06641C7.07692 7.07166 7.07166 7.07692 7.06641 7.08203C6.70118 7.43672 6.42043 7.86907 6.24414 8.34668L6.24316 8.34766C5.9774 9.06468 5.83738 9.82229 5.82812 10.5869C5.82802 10.5953 5.82753 10.6039 5.82715 10.6123C5.7633 12.0098 5.75 12.4206 5.75 16C5.75 19.5793 5.7633 19.9901 5.82715 21.3877C5.82753 21.3961 5.82802 21.4047 5.82812 21.4131C5.83738 22.1776 5.97741 22.9354 6.24316 23.6523L6.24414 23.6533L6.31543 23.8301C6.46706 24.1793 6.67567 24.5011 6.93359 24.7812L7.06641 24.918L7.08203 24.9336C7.43644 25.2987 7.86852 25.5795 8.3457 25.7559L8.34668 25.7568C9.06402 26.0227 9.82191 26.1627 10.5869 26.1719C10.5953 26.172 10.6039 26.1725 10.6123 26.1729C12.0098 26.2367 12.4206 26.25 16 26.25C19.5794 26.25 19.9901 26.2367 21.3877 26.1729L21.4131 26.1719C22.1743 26.1626 22.9285 26.0232 23.6426 25.7598C24.1238 25.5741 24.5613 25.2903 24.9258 24.9258C25.2903 24.5613 25.5741 24.1238 25.7598 23.6426C26.0232 22.9285 26.1626 22.1743 26.1719 21.4131L26.1729 21.3877C26.2367 19.9901 26.25 19.5794 26.25 16C26.25 12.4206 26.2367 12.0098 26.1729 10.6123C26.1725 10.6039 26.172 10.5953 26.1719 10.5869C26.1626 9.82226 26.0226 9.06467 25.7568 8.34766L25.7559 8.34668L26.46 8.08691L26.5693 8.0459L25.7559 8.34668C25.5796 7.86909 25.2988 7.43672 24.9336 7.08203C24.9283 7.07693 24.9231 7.07166 24.918 7.06641C24.6076 6.74682 24.2375 6.49233 23.8301 6.31543L23.6533 6.24414L23.6523 6.24316C22.9354 5.97741 22.1776 5.83738 21.4131 5.82812C21.4047 5.82802 21.3961 5.82753 21.3877 5.82715C19.9901 5.7633 19.5793 5.75 16 5.75ZM14.8984 10.458C15.9942 10.2402 17.131 10.3517 18.1631 10.7793C19.1952 11.2069 20.0775 11.9315 20.6982 12.8604C21.319 13.7893 21.6503 14.8826 21.6504 16C21.6503 17.4981 21.0553 18.9357 19.9961 19.9951C18.9368 21.0544 17.4991 21.6492 16.001 21.6494C14.8835 21.6494 13.7904 21.318 12.8613 20.6973C11.9324 20.0765 11.2079 19.1944 10.7803 18.1621C10.3527 17.1299 10.241 15.9933 10.459 14.8975C10.677 13.8016 11.2158 12.7949 12.0059 12.0049C12.7959 11.2149 13.8026 10.676 14.8984 10.458ZM17.5889 12.165C16.831 11.8511 15.9961 11.7698 15.1914 11.9297C14.3865 12.0898 13.6466 12.4853 13.0664 13.0654C12.4862 13.6456 12.0909 14.3855 11.9307 15.1904C11.7706 15.9952 11.852 16.8299 12.166 17.5879C12.4801 18.3462 13.0129 18.9942 13.6953 19.4502C14.3777 19.906 15.1804 20.1494 16.001 20.1494C17.1012 20.1492 18.1575 19.7126 18.9355 18.9346C19.7134 18.1565 20.1503 17.1002 20.1504 16C20.1503 15.1795 19.907 14.3766 19.4512 13.6943C18.9952 13.012 18.347 12.4792 17.5889 12.165ZM22.7617 7.71875C23.1925 7.71888 23.6055 7.88991 23.9102 8.19434C24.2147 8.49876 24.3866 8.91132 24.3867 9.3418C24.3867 9.66291 24.2909 9.97714 24.1123 10.2441C23.9338 10.5112 23.6797 10.7199 23.3828 10.8428C23.086 10.9656 22.7594 10.9972 22.4443 10.9346C22.129 10.8719 21.8395 10.7173 21.6123 10.4902C21.385 10.2632 21.2297 9.97412 21.167 9.65918C21.1043 9.3442 21.1368 9.01741 21.2598 8.7207C21.3826 8.42401 21.5913 8.17062 21.8584 7.99219C22.1257 7.81377 22.4403 7.71875 22.7617 7.71875Z"
    fill="currentColor"
  />
</svg>

<svg xmlns="http://www.w3.org/2000/svg" width="32" height="32" fill="none" data-fui-icon="true" viewBox="0 0 32 32"><path fill="currentColor" d="M16 4.25c3.572 0 4.02.014 5.44.08a8.2 8.2 0 0 1 2.734.507h-.001c.68.252 1.298.65 1.806 1.169l.19.197c.434.47.772 1.022.994 1.623l.114.332c.249.771.382 1.575.394 2.386l.04.952c.031.896.039 1.814.039 4.504 0 3.585-.014 4.024-.08 5.456a8.2 8.2 0 0 1-.507 2.717l-.004.01a5.2 5.2 0 0 1-2.976 2.976l-.01.004-.26-.703-.006-.013.266.716c-.875.324-1.8.495-2.733.508-1.42.065-1.868.079-5.44.079s-4.02-.014-5.441-.08a8.2 8.2 0 0 1-2.734-.507 4.9 4.9 0 0 1-1.82-1.184v-.002a4.9 4.9 0 0 1-1.167-1.804 8.2 8.2 0 0 1-.509-2.717c-.065-1.432-.079-1.87-.079-5.456 0-3.585.014-4.024.08-5.456a8.2 8.2 0 0 1 .507-2.718 4.9 4.9 0 0 1 1.184-1.82 4.9 4.9 0 0 1 1.805-1.168 8.2 8.2 0 0 1 2.733-.509c1.42-.065 1.868-.079 5.441-.079m0 1.5c-3.58 0-3.99.013-5.388.077l-.025.001c-.765.01-1.522.15-2.24.415v.001a3.4 3.4 0 0 0-1.28.838 3.4 3.4 0 0 0-.823 1.265 6.7 6.7 0 0 0-.416 2.24v.025C5.762 12.01 5.75 12.421 5.75 16c0 3.58.013 3.99.077 5.388l.001.025c.01.765.15 1.522.415 2.24h.001l.071.177c.152.35.36.671.619.951l.132.137.016.016c.354.365.787.645 1.264.822a6.7 6.7 0 0 0 2.24.416h.026c1.398.065 1.809.078 5.388.078 3.58 0 3.99-.013 5.388-.077l.025-.001a6.7 6.7 0 0 0 2.23-.412 3.7 3.7 0 0 0 2.117-2.117 6.7 6.7 0 0 0 .412-2.23v-.025c.065-1.398.078-1.809.078-5.388 0-3.58-.013-3.99-.077-5.388l-.001-.025a6.7 6.7 0 0 0-.415-2.24h-.001l.704-.26.11-.041-.814.3a3.4 3.4 0 0 0-.838-1.28c-.31-.32-.68-.574-1.088-.75l-.177-.072a6.7 6.7 0 0 0-2.24-.416h-.025C19.99 5.762 19.579 5.75 16 5.75m-1.102 4.708a5.65 5.65 0 0 1 5.8 2.402 5.65 5.65 0 0 1-.702 7.135 5.652 5.652 0 0 1-9.537-5.097 5.65 5.65 0 0 1 4.44-4.44m2.69 1.707a4.152 4.152 0 0 0-5.422 5.423A4.152 4.152 0 0 0 20.15 16a4.15 4.15 0 0 0-2.561-3.835m5.174-4.446a1.625 1.625 0 0 1 1.35 2.525 1.626 1.626 0 0 1-2.945-.585 1.624 1.624 0 0 1 1.595-1.94"/></svg>
